X: 2
P: Seamus O'Brien  [G] (James O'Brien)
B:The Grumbling Old Woman (Donna Hinds)
N:From the playing of Eleanor Townsend
Z:Nigel Gatherer
M:3/4
R:Waltz
L:1/8
K:G
B>c \
| "G"e2 d2 d>B | G4 F>G | "C"E2 G2 E2 | "G"D4 E>F \
| "Em"G2 F2 G2 | e2 d2 B2 | "A7"A3 E FG | "D7"A4 ||
B>c \
| "G"e2 d2 d>B | "G"G3 G F>G| "C"E2 G2 c2 | "A7/c#"e4 g>e \
| "G/d"d3 d B>G | "D7"A2 E2 F2 | "G"G4- G>A | G4 |]
B>d \
| "C"e3 d e>f | "C"g2 f2 e2 | "Bm"f2 d3 B | "Bm"d4 B>d \
| "C"e3 d e>f | "A7/c#"g2 f2 e2 | "D"f4 f2 | "D7"f4 ||
g>f \
| "C"e2  d2  d>B | "G"G3 G F>G | "C"E2 G2 c2 | "A/c#"e3 g f>e \
| "G"d3 d B>G | "D7"A2 E2 F2 | "G"G4- G>A | G4 |]

%%newpage

#abcjoin: UCT=1.
#abcjoin: sep=2.


